apps/app.mento.org/public/tokens/cGHS.svg

<svg width="40" height="40" viewBox="0 0 40 40" fill="none" xmlns="http://www.w3.org/2000/svg">
<g clip-path="url(#clip0_4004_57044)">
<path d="M20 40C31.0457 40 40 31.0457 40 20C40 8.95431 31.0457 0 20 0C8.95431 0 0 8.95431 0 20C0 31.0457 8.95431 40 20 40Z" fill="#8C35FD"/>
<path d="M28.8607 18.124C28.2047 19.452 27.0175 20.3384 25.6775 20.5576V10.888C26.9887 11.1024 28.1535 11.9552 28.8175 13.236H31.5871C30.7215 10.544 28.4759 8.56241 25.6775 8.29441V6.52081H23.9623V8.34641C20.5639 8.88641 18.0791 11.984 18.0791 15.724C18.0791 19.464 20.5631 22.5616 23.9623 23.1016V25.0256H25.6775V23.1536C28.5063 22.8824 30.7687 20.8616 31.6143 18.1256H28.8607V18.124ZM20.6519 15.7224C20.6519 13.2768 22.1135 11.48 23.9623 10.9768V20.4688C22.1143 19.9656 20.6519 18.168 20.6519 15.7232V15.7224Z" fill="white"/>
<path d="M19.1751 30.7949C14.7159 30.7949 11.0711 27.1509 11.0711 22.6909C11.0711 19.5261 12.8935 16.7445 15.5783 15.4501V12.5253C11.4063 14.0117 8.3855 17.9917 8.3855 22.6909C8.3855 28.6373 13.2287 33.4805 19.1751 33.4805C23.8743 33.4805 27.8543 30.4597 29.3407 26.2877H26.4159C25.1215 28.9733 22.3399 30.7949 19.1751 30.7949Z" fill="white"/>
</g>
<defs>
<clipPath id="clip0_4004_57044">
<rect width="40" height="40" fill="white"/>
</clipPath>
</defs>
</svg>

<svg xmlns="http://www.w3.org/2000/svg" width="40" height="40" fill="none" viewBox="0 0 40 40"><g clip-path="url(#a)"><path fill="#8C35FD" d="M20 40c11.046 0 20-8.954 20-20S31.046 0 20 0 0 8.954 0 20s8.954 20 20 20"/><path fill="#fff" d="M28.86 18.124c-.655 1.328-1.843 2.214-3.183 2.434v-9.67c1.312.214 2.477 1.067 3.14 2.348h2.77c-.866-2.692-3.111-4.674-5.91-4.942V6.521h-1.715v1.825c-3.398.54-5.883 3.638-5.883 7.378s2.484 6.838 5.883 7.378v1.924h1.715v-1.872c2.83-.272 5.092-2.292 5.937-5.028h-2.753zm-8.208-2.402c0-2.445 1.461-4.242 3.31-4.745v9.492c-1.848-.503-3.31-2.301-3.31-4.746"/><path fill="#fff" d="M19.175 30.795c-4.46 0-8.104-3.644-8.104-8.104 0-3.165 1.822-5.946 4.507-7.24v-2.926c-4.172 1.487-7.192 5.467-7.192 10.166 0 5.946 4.843 10.79 10.79 10.79 4.698 0 8.678-3.021 10.165-7.193h-2.925c-1.294 2.685-4.076 4.507-7.24 4.507"/></g><defs><clipPath id="a"><path fill="#fff" d="M0 0h40v40H0z"/></clipPath></defs></svg>
